X: 137
T:Schottische a Dede
M:2/2
L:1/8
Q:200
K:Gm
G2 B2 d2 B2 | ABAG A4 | ABcB AG^FG |
A2 B2 A2 G2 | G2 B2 d2 B2 | ABAG A4 |
ABcB AG^FG | A2 F2 G4 :||
K:G
D2 G2 B2 A2 | FGFE D4 | FGAB AGFG |
ABcA B2 G2 | D2 G2 B2 A2 | FGFE D4 |
FGAB AGFG | A2 F2 G4 :||
